X:484
T:I've Got a Lovely Bunch of Coconuts
C:Fred Heatherton, 1944
L:1/8
S:Colin Hume's website,  colinhume.com  - chords can also be printed below the stave.
Q:3/8=120
M:6/8
R:Jig
K:D
"D"F3 ^E2 F | ddd c2 B | F2 F F3- | F6 | F2 F^E2 F | d2 dc2 B | "Em"G6- | G3 z3 |
"A7"c3 c3 | c3 c3 | c2 c ccc | c6 | "E7"BBB B2 B | BBB B2 B | e2 d c2B | "A"A6 |
"D"F3 ^E2 F | ddd c2 B | F2 F F3- | F6 | "D"F2F^E2 F | d2 dc2 B | "Em"G6- | G3 z3 |
"A7"c3 c2 ^B | c3- c2 ^B | c2 c c2 ^B | c3 c2 =B | A2 B c2 B | A2 G FFE | "D"D6- | D6 |]

